X: 20611
T: John Of The Glen
R: reel
M: 4/4
K: Dmajor
Ade|f3g a3{ba}g|f6 e{fe}d/c/|d3c d3c|{d}e6 AB|
c3e d3c|{A}B4- B2 A{BA}G/F/|G2{AG}FG A3A|1 A4- A:|2 A6||
c2|c3A c3d|{d}e6 a2|a3b agf2|a6 ag|
f3g e3c|d2 ee3 ce|d3c A3{BA}G|A8||

